public/images/icons/Stickers.svg

<svg width="70" height="70" viewBox="0 0 70 70" fill="none" xmlns="http://www.w3.org/2000/svg">
<circle cx="34.8394" cy="34.534" r="10.803" transform="rotate(26 34.8394 34.534)" fill="#5B5B5B"/>
<path d="M56.5887 43.2032C59.0197 38.219 59.1731 32.3767 57.0153 26.9615C54.8574 21.5463 50.565 17.0018 45.0824 14.3277C39.5998 11.6537 33.376 11.0691 27.7803 12.7026C22.1845 14.3362 17.6752 18.054 15.2442 23.0382" stroke="#5B5B5B" stroke-width="5"/>
<path d="M13.411 26.7968C10.9801 31.781 10.8266 37.6233 12.9845 43.0385C15.1423 48.4537 19.4347 52.9982 24.9173 55.6723C30.4 58.3463 36.6237 58.9309 42.2195 57.2974C47.8152 55.6639 52.3246 51.9461 54.7555 46.9619" stroke="#5B5B5B" stroke-width="5"/>
</svg>

<svg xmlns="http://www.w3.org/2000/svg" width="70" height="70" fill="none"  xmlns:v="https://vecta.io/nano"><circle cx="34.839" cy="34.534" r="10.803" transform="rotate(26 34.839 34.534)" fill="#5b5b5b"/><path d="M56.589 43.203c2.431-4.984 2.584-10.827.427-16.242s-6.45-9.96-11.933-12.634-11.706-3.259-17.302-1.625-10.105 5.351-12.536 10.336m-1.834 3.759c-2.431 4.984-2.584 10.827-.426 16.242s6.45 9.96 11.933 12.634 11.706 3.259 17.302 1.625 10.105-5.351 12.536-10.336" stroke="#5b5b5b" stroke-width="5"/></svg>
